!!!COM: Music21
!!!OTL: polka_Ring-OBells
!!!OMV: polka_Ring-OBells
**kern
*clefG2
*k[f#]
*G:
*M2/4
=1
4b
4a
=
8gL
8ccJ
4b
=
8aL
8gJ
8f#L
8gJ
=
4b
4a
=
4b
4a
=
8gL
8ccJ
4b
=
8aL
8ddJ
8ddL
8cc#XJ
=
2dd
=||
*M2/4
4b
4a
=
8gL
8ccJ
4b
=
8aL
8gJ
8f#L
8gJ
=
4b
4a
=
4b
4a
=
8gL
8ccJ
4b
=
8aL
8ddJ
8ddL
8cc#XJ
=
2dd
=||
4dd
4cc
=
8bL
8ggJ
4ee
=
4dd
4cc
=
8bL
8ggJ
4ee
=
8ddL
8gJ
4cc
=
8bL
8f#J
8gL
8ccJ
=
4b
8.aL
16gJk
=
2g
=||
4dd
4cc
=
8bL
8ggJ
4ee
=
4dd
4cc
=
8bL
8ggJ
4ee
=
8ddL
8gJ
4cc
=
8bL
8f#J
8gL
8ccJ
=
4b
8.aL
16gJk
=
2g
=||
*-
